X: 5
T: The Coleraine
R: jig
M: 6/8
L: 1/8
K: Amin
E|:"Am"EAA ABc|"Em"Bee e2d| "Am"cBA ABc| "E"BEE E2 D|
"Am"EAA ABc|"Em"Bee e2d|"Am"cBA "E"^GAB|1"Am"A2A A2E:|2A2A "G"GAB|
"C"c3 cdc|"G"Bgg "E5"g2^g|"Am"aed cBA|"E"^GAB E^F^G|
"Am"A^GA "G"BAB|"C"cde "Dm"fed|"Am"cBA "E"^GAB|1"Am"A2A "G"GAB:|2"Am"A3 A2|


Tune 17	Setting 17

